assets/img/braze_icons/arrow-narrow-up.svg

<svg fill="none" height="24" viewBox="0 0 24 24" width="24" xmlns="http://www.w3.org/2000/svg"><path d="m12.7071 3.29289c-.3905-.39052-1.0237-.39052-1.4142 0l-6.00001 6c-.39052.39053-.39052 1.02371 0 1.41421.39053.3905 1.02369.3905 1.41422 0l4.29289-4.29289v13.58579c0 .5523.4477 1 1 1s1-.4477 1-1v-13.58579l4.2929 4.29289c.3905.3905 1.0237.3905 1.4142 0s.3905-1.02368 0-1.41421z" fill="#801ed7"/></svg>

<svg width="24" height="24" viewBox="0 0 24 24" fill="none" xmlns="http://www.w3.org/2000/svg">
<path d="M12.7071 3.29289C12.3166 2.90237 11.6834 2.90237 11.2929 3.29289L5.29289 9.29289C4.90237 9.68342 4.90237 10.3166 5.29289 10.7071C5.68342 11.0976 6.31658 11.0976 6.70711 10.7071L11 6.41421L11 20C11 20.5523 11.4477 21 12 21C12.5523 21 13 20.5523 13 20L13 6.41421L17.2929 10.7071C17.6834 11.0976 18.3166 11.0976 18.7071 10.7071C19.0976 10.3166 19.0976 9.68342 18.7071 9.29289L12.7071 3.29289Z" fill="#801ED7"/>
</svg>
